img/franz.svg

<svg height="213" viewBox="0 0 446 213" width="446" xmlns="http://www.w3.org/2000/svg"><g fill-rule="evenodd"><path d="m68.96875 77c0 3.7500187.1406236 6.7265515.421875 8.9296875h-3.3046875c-.5156276-5.3437767-1.4179623-9.5390473-2.7070313-12.5859375-1.2890689-3.0468902-3.1406129-5.2382746-5.5546874-6.5742188-2.4140746-1.3359441-5.6132614-2.0039062-9.5976563-2.0039062h-10.546875c-3.4687673 0-5.9882734.2695286-7.5585937.8085938-1.5703204.5390651-2.6484346 1.628898-3.234375 3.2695312-.5859405 1.6406332-.8789063 4.265607-.8789063 7.875v26.789062h11.953125c3.0468902 0 5.4023354-.785148 7.0664063-2.355468 1.6640708-1.5703206 2.7773409-3.3046783 3.3398437-5.2031252.5625028-1.898447 1.0781227-4.2773295 1.546875-7.1367188h3.3046875c-.3281266 3.7500187-.4921875 7.3124831-.4921875 10.6875l.0703125 5.414062c0 3.84377.3046845 9.234341.9140625 16.171876h-3.375c-.3750019-2.95314-.9023404-5.460928-1.5820313-7.523438-.6796908-2.06251-1.8749914-3.773431-3.5859374-5.132812-1.7109461-1.359382-4.1132658-2.039063-7.2070313-2.039063h-11.953125v27.351563c0 3.609393.3749962 6.234366 1.125 7.875.7500038 1.640633 2.1093652 2.765621 4.078125 3.375 1.9687598.609378 5.0859162.984374 9.3515625 1.125v2.882812c-4.9687748-.281251-12.0233918-.421875-21.1640625-.421875-8.2500412 0-14.39060484.140624-18.421875.421875v-2.882812c3.46876734-.140626 5.9882734-.515622 7.55859375-1.125 1.57032035-.609379 2.64843455-1.734367 3.23437495-3.375.5859405-1.640634.8789063-4.265607.8789063-7.875v-57.023438c0-3.609393-.2929658-6.2343668-.8789063-7.875-.5859404-1.6406332-1.6640546-2.765622-3.23437495-3.375s-4.08982641-.9843743-7.55859375-1.125v-2.8828125c9.1406707.2812514 22.5702239.421875 40.2890625.421875 13.4531923 0 23.0155966-.1406236 28.6875-.421875-.6562533 5.7656538-.984375 10.9452895-.984375 15.5390625zm166.21875 69.117188v2.882812c-3.93752-.281251-9.070281-.421875-15.398438-.421875-8.250041 0-14.414042.140624-18.492187.421875v-2.882812c3.609393-.140626 6.234367-.585934 7.875-1.335938s2.460937-2.062491 2.460937-3.9375c0-1.734384-.656243-4.007798-1.96875-6.820312l-7.242187-16.382813h-35.15625l-4.851563 10.757813c-1.593757 3.703143-2.390624 6.773425-2.390624 9.210937 0 5.062525 3.726525 7.898434 11.179687 8.507813v2.882812c-2.859389-.281251-7.218721-.421875-13.078125-.421875s-10.031238.140624-12.515625.421875v-2.882812c2.531263-.656254 4.734366-2.121083 6.609375-4.394532s3.609367-5.2617 5.203125-8.964844l31.78125-71.9999995h2.320313l33.679687 76.1484375c2.625013 5.953155 5.953105 9.023437 9.984375 9.210938zm-50.273438-67.992188-16.382812 36.632812h32.625zm72.527344 55.722656c1.429695.820317 2.554684 1.945306 3.375 3.375.820317 1.429695 1.230469 2.964836 1.230469 4.605469s-.410152 3.164055-1.230469 4.570313c-.820316 1.406257-1.945305 2.531245-3.375 3.375-1.429694.843754-2.964835 1.265624-4.605468 1.265624-1.640634 0-3.175775-.42187-4.605469-1.265624-1.429695-.843755-2.554684-1.968743-3.375-3.375-.820317-1.406258-1.230469-2.92968-1.230469-4.570313s.410152-3.175774 1.230469-4.605469c.820316-1.429694 1.945305-2.554683 3.375-3.375 1.429694-.820316 2.964835-1.230468 4.605469-1.230468 1.640633 0 3.175774.410152 4.605468 1.230468zm99.703125-68.0624998c-1.617195.8203167-2.730465 2.1679594-3.339843 4.0429688-.609379 1.8750094-.914063 4.6406067-.914063 8.296875v71.578125h-3.304687l-57.585938-79.734375v62.296875c0 3.703144.328122 6.492178.984375 8.367187.656253 1.87501 1.88671 3.222653 3.691406 4.042969 1.804697.820317 4.60545 1.300781 8.402344 1.441407v2.882812c-3.421892-.281251-8.320281-.421875-14.695313-.421875-5.718778 0-10.171859.140624-13.359374.421875v-2.882812c3.328141-.140626 5.800773-.62109 7.417968-1.441407 1.617196-.820316 2.730466-2.167959 3.339844-4.042969.609378-1.875009.914062-4.664043.914062-8.367187v-55.546875c0-3.609393-.292965-6.2343668-.878906-7.875-.58594-1.6406332-1.664054-2.765622-3.234375-3.375-1.57032-.609378-4.089826-.9843743-7.558593-1.125v-2.8828125c3.14064.2812514 7.593721.421875 13.359374.421875 5.296902 0 9.726545-.1406236 13.289063-.421875l45.914063 63.9140625v-47.25c0-3.7031435-.316404-6.4804595-.949219-8.3320312-.632816-1.8515718-1.863272-3.1874959-3.691407-4.0078126-1.828134-.8203166-4.640606-1.3007805-8.4375-1.4414062v-2.8828125c3.421893.2812514 8.320281.421875 14.695313.421875 5.765654 0 10.218734-.1406236 13.359375-.421875v2.8828125c-3.328142.1406257-5.800773.6210896-7.417969 1.4414062zm35.964844 79.9101558h31.640625c3.375017 0 6.164051-.761711 8.367188-2.285156 2.203136-1.523445 3.972649-4.042951 5.308593-7.558594 1.335944-3.515642 2.261716-8.24997 2.777344-14.203124h3.304687c-.281251 3.000015-.421874 6.937475-.421874 11.8125 0 4.593772.328121 9.773408.984374 15.539062-6.796908-.281251-18.257731-.421875-34.382812-.421875-15.375077 0-26.57809.140624-33.609375.421875v-2.882812l50.835937-81.351563h-30.234374c-3.328142 0-6.105458.7617111-8.332032 2.2851562-2.226573 1.5234452-3.996087 4.0429512-5.308594 7.5585938-1.312506 3.5156426-2.226559 8.2499702-2.742187 14.203125h-3.304687c.281251-3.0468902.421874-6.9843509.421874-11.8125 0-4.593773-.328121-9.7734087-.984374-15.5390625 6.796908.2812514 18.257731.421875 34.382812.421875 14.671948 0 25.382779-.1406236 32.132812-.421875v2.8828125z"/><path d="m70 212.0625 78.328125-212.0625h9.421875l-78.328125 212.0625z"/></g></svg>

<?xml version="1.0" encoding="UTF-8"?>
<svg width="446px" height="213px" viewBox="0 0 446 213" version="1.1" xmlns="http://www.w3.org/2000/svg" xmlns:xlink="http://www.w3.org/1999/xlink">
    <!-- Generator: Sketch 50.2 (55047) - http://www.bohemiancoding.com/sketch -->
    <title>franz</title>
    <desc>Created with Sketch.</desc>
    <defs></defs>
    <g id="Page-1" stroke="none" stroke-width="1" fill="none" fill-rule="evenodd">
        <g id="Artboard" transform="translate(-27.000000, -144.000000)" fill="#000000">
            <g id="franz" transform="translate(27.000000, 144.000000)">
                <path d="M68.96875,77 C68.96875,80.7500187 69.1093736,83.7265515 69.390625,85.9296875 L66.0859375,85.9296875 C65.5703099,80.5859108 64.6679752,76.3906402 63.3789062,73.34375 C62.0898373,70.2968598 60.2382933,68.1054754 57.8242188,66.7695312 C55.4101442,65.4335871 52.2109574,64.765625 48.2265625,64.765625 L37.6796875,64.765625 C34.2109202,64.765625 31.6914141,65.0351536 30.1210938,65.5742188 C28.5507734,66.1132839 27.4726592,67.2031168 26.8867188,68.84375 C26.3007783,70.4843832 26.0078125,73.109357 26.0078125,76.71875 L26.0078125,103.507812 L37.9609375,103.507812 C41.0078277,103.507812 43.3632729,102.722664 45.0273438,101.152344 C46.6914146,99.5820234 47.8046847,97.8476657 48.3671875,95.9492188 C48.9296903,94.0507718 49.4453102,91.6718893 49.9140625,88.8125 L53.21875,88.8125 C52.8906234,92.5625187 52.7265625,96.1249831 52.7265625,99.5 L52.796875,104.914062 C52.796875,108.757832 53.1015595,114.148403 53.7109375,121.085938 L50.3359375,121.085938 C49.9609356,118.132798 49.4335971,115.62501 48.7539062,113.5625 C48.0742154,111.49999 46.8789148,109.789069 45.1679688,108.429688 C43.4570227,107.070306 41.054703,106.390625 37.9609375,106.390625 L26.0078125,106.390625 L26.0078125,133.742188 C26.0078125,137.351581 26.3828087,139.976554 27.1328125,141.617188 C27.8828163,143.257821 29.2421777,144.382809 31.2109375,144.992188 C33.1796973,145.601566 36.2968537,145.976562 40.5625,146.117188 L40.5625,149 C35.5937252,148.718749 28.5391082,148.578125 19.3984375,148.578125 C11.1483963,148.578125 5.00783266,148.718749 0.9765625,149 L0.9765625,146.117188 C4.44532984,145.976562 6.9648359,145.601566 8.53515625,144.992188 C10.1054766,144.382809 11.1835908,143.257821 11.7695312,141.617188 C12.3554717,139.976554 12.6484375,137.351581 12.6484375,133.742188 L12.6484375,76.71875 C12.6484375,73.109357 12.3554717,70.4843832 11.7695312,68.84375 C11.1835908,67.2031168 10.1054766,66.078128 8.53515625,65.46875 C6.9648359,64.859372 4.44532984,64.4843757 0.9765625,64.34375 L0.9765625,61.4609375 C10.1172332,61.7421889 23.5467864,61.8828125 41.265625,61.8828125 C54.7188173,61.8828125 64.2812216,61.7421889 69.953125,61.4609375 C69.2968717,67.2265913 68.96875,72.406227 68.96875,77 Z M235.1875,146.117188 L235.1875,149 C231.24998,148.718749 226.117219,148.578125 219.789062,148.578125 C211.539021,148.578125 205.37502,148.718749 201.296875,149 L201.296875,146.117188 C204.906268,145.976562 207.531242,145.531254 209.171875,144.78125 C210.812508,144.031246 211.632812,142.718759 211.632812,140.84375 C211.632812,139.109366 210.976569,136.835952 209.664062,134.023438 L202.421875,117.640625 L167.265625,117.640625 L162.414062,128.398438 C160.820305,132.101581 160.023438,135.171863 160.023438,137.609375 C160.023438,142.6719 163.749963,145.507809 171.203125,146.117188 L171.203125,149 C168.343736,148.718749 163.984404,148.578125 158.125,148.578125 C152.265596,148.578125 148.093762,148.718749 145.609375,149 L145.609375,146.117188 C148.140638,145.460934 150.343741,143.996105 152.21875,141.722656 C154.093759,139.449207 155.828117,136.460956 157.421875,132.757812 L189.203125,60.7578125 L191.523438,60.7578125 L225.203125,136.90625 C227.828138,142.859405 231.15623,145.929687 235.1875,146.117188 Z M184.914062,78.125 L168.53125,114.757812 L201.15625,114.757812 L184.914062,78.125 Z M257.441406,133.847656 C258.871101,134.667973 259.99609,135.792962 260.816406,137.222656 C261.636723,138.652351 262.046875,140.187492 262.046875,141.828125 C262.046875,143.468758 261.636723,144.99218 260.816406,146.398438 C259.99609,147.804695 258.871101,148.929683 257.441406,149.773438 C256.011712,150.617192 254.476571,151.039062 252.835938,151.039062 C251.195304,151.039062 249.660163,150.617192 248.230469,149.773438 C246.800774,148.929683 245.675785,147.804695 244.855469,146.398438 C244.035152,144.99218 243.625,143.468758 243.625,141.828125 C243.625,140.187492 244.035152,138.652351 244.855469,137.222656 C245.675785,135.792962 246.800774,134.667973 248.230469,133.847656 C249.660163,133.02734 251.195304,132.617188 252.835938,132.617188 C254.476571,132.617188 256.011712,133.02734 257.441406,133.847656 Z M357.144531,65.7851562 C355.527336,66.6054729 354.414066,67.9531156 353.804688,69.828125 C353.195309,71.7031344 352.890625,74.4687317 352.890625,78.125 L352.890625,149.703125 L349.585938,149.703125 L292,69.96875 L292,132.265625 C292,135.968769 292.328122,138.757803 292.984375,140.632812 C293.640628,142.507822 294.871085,143.855465 296.675781,144.675781 C298.480478,145.496098 301.281231,145.976562 305.078125,146.117188 L305.078125,149 C301.656233,148.718749 296.757844,148.578125 290.382812,148.578125 C284.664034,148.578125 280.210953,148.718749 277.023438,149 L277.023438,146.117188 C280.351579,145.976562 282.824211,145.496098 284.441406,144.675781 C286.058602,143.855465 287.171872,142.507822 287.78125,140.632812 C288.390628,138.757803 288.695312,135.968769 288.695312,132.265625 L288.695312,76.71875 C288.695312,73.109357 288.402347,70.4843832 287.816406,68.84375 C287.230466,67.2031168 286.152352,66.078128 284.582031,65.46875 C283.011711,64.859372 280.492205,64.4843757 277.023438,64.34375 L277.023438,61.4609375 C280.164078,61.7421889 284.617159,61.8828125 290.382812,61.8828125 C295.679714,61.8828125 300.109357,61.7421889 303.671875,61.4609375 L349.585938,125.375 L349.585938,78.125 C349.585938,74.4218565 349.269534,71.6445405 348.636719,69.7929688 C348.003903,67.941397 346.773447,66.6054729 344.945312,65.7851562 C343.117178,64.9648396 340.304706,64.4843757 336.507812,64.34375 L336.507812,61.4609375 C339.929705,61.7421889 344.828093,61.8828125 351.203125,61.8828125 C356.968779,61.8828125 361.421859,61.7421889 364.5625,61.4609375 L364.5625,64.34375 C361.234358,64.4843757 358.761727,64.9648396 357.144531,65.7851562 Z M393.109375,145.695312 L424.75,145.695312 C428.125017,145.695312 430.914051,144.933601 433.117188,143.410156 C435.320324,141.886711 437.089837,139.367205 438.425781,135.851562 C439.761725,132.33592 440.687497,127.601592 441.203125,121.648438 L444.507812,121.648438 C444.226561,124.648453 444.085938,128.585913 444.085938,133.460938 C444.085938,138.05471 444.414059,143.234346 445.070312,149 C438.273404,148.718749 426.812581,148.578125 410.6875,148.578125 C395.312423,148.578125 384.10941,148.718749 377.078125,149 L377.078125,146.117188 L427.914062,64.765625 L397.679688,64.765625 C394.351546,64.765625 391.57423,65.5273361 389.347656,67.0507812 C387.121083,68.5742264 385.351569,71.0937324 384.039062,74.609375 C382.726556,78.1250176 381.812503,82.8593452 381.296875,88.8125 L377.992188,88.8125 C378.273439,85.7656098 378.414062,81.8281491 378.414062,77 C378.414062,72.406227 378.085941,67.2265913 377.429688,61.4609375 C384.226596,61.7421889 395.687419,61.8828125 411.8125,61.8828125 C426.484448,61.8828125 437.195279,61.7421889 443.945312,61.4609375 L443.945312,64.34375 L393.109375,145.695312 Z" id="f-a.nz"></path>
                <polygon id="/" points="70 212.0625 148.328125 0 157.75 0 79.421875 212.0625"></polygon>
            </g>
        </g>
    </g>
</svg>
